src/icons/desktop-download.svg

<svg width="16" height="16" xmlns="http://www.w3.org/2000/svg"><path fill-rule="evenodd" clip-rule="evenodd" d="M4 15v-1c2 0 2-.6 2-1H1.5l-.5-.5v-10l.5-.5h13l.5.5v9.24l-1-1V3H2v9h5.73l-.5.5 2.5 2.5H4zm7.86 0l2.5-2.5-.71-.7L12 13.45V7h-1v6.44l-1.64-1.65-.71.71 2.5 2.5h.71z"/></svg>

<svg width="16" height="16" viewBox="0 0 16 16" fill="none" xmlns="http://www.w3.org/2000/svg">
<path fill-rule="evenodd" clip-rule="evenodd" d="M4 15V14C6 14 6 13.4 6 13H1.5L1 12.5V2.5L1.5 2H14.5L15 2.5V11.74L14 10.74V3H2V12H7.73L7.23 12.5L9.73 15H4ZM11.86 15L14.36 12.5L13.65 11.8L12 13.45V7H11V13.44L9.35999 11.79L8.64999 12.5L11.15 15H11.86Z" fill="white"/>
</svg>
